lib/brands/icons/google-drive.svg

<svg xmlns="http://www.w3.org/2000/svg" fill="none" aria-hidden="true" viewBox="0 0 48 48"><g id="google-drive-Icon"><g id="Group"><path id="Vector" fill="#0066DA" d="M8.72165 35.567L10.3093 38.3092C10.6392 38.8866 11.1134 39.3402 11.6701 39.6701L17.3402 29.8556H6C6 30.4948 6.16494 31.134 6.49484 31.7113L8.72165 35.567Z"/><path id="Vector_2" fill="#00AC47" d="M24 18.3092L18.3299 8.49475C17.7732 8.82465 17.299 9.27826 16.9691 9.85557L6.49484 27.9999C6.17101 28.5648 6.00043 29.2045 6 29.8556H17.3402L24 18.3092Z"/><path id="Vector_3" fill="#EA4335" d="M36.3301 39.6701C36.8868 39.3402 37.361 38.8866 37.6909 38.3092L38.3507 37.1752L41.5054 31.7113C41.8353 31.134 42.0002 30.4948 42.0002 29.8556H30.6592L33.0724 34.5979L36.3301 39.6701Z"/><path id="Vector_4" fill="#00832D" d="M24.0002 18.3093L29.6703 8.49485C29.1136 8.16495 28.4744 8 27.8146 8H20.1857C19.526 8 18.8868 8.18557 18.3301 8.49485L24.0002 18.3093Z"/><path id="Vector_5" fill="#2684FC" d="M30.6596 29.8556H17.34L11.6699 39.6701C12.2266 40 12.8658 40.1649 13.5256 40.1649H34.474C35.1338 40.1649 35.773 39.9794 36.3297 39.6701L30.6596 29.8556Z"/><path id="Vector_6" fill="#FFBA00" d="M36.268 18.9277L31.0309 9.85557C30.701 9.27826 30.2268 8.82465 29.6701 8.49475L24 18.3092L30.6598 29.8556H41.9794C41.9794 29.2164 41.8144 28.5772 41.4845 27.9999L36.268 18.9277Z"/></g></g></svg>

<svg xmlns="http://www.w3.org/2000/svg" fill="none" aria-hidden="true" viewBox="0 0 48 48"><path fill="#0066DA" d="m8.722 35.567 1.587 2.742a3.74 3.74 0 0 0 1.361 1.361l5.67-9.814H6c0 .639.165 1.278.495 1.855l2.227 3.856Z"/><path fill="#00AC47" d="m24 18.31-5.67-9.815a3.734 3.734 0 0 0-1.36 1.36L6.494 28A3.736 3.736 0 0 0 6 29.856h11.34L24 18.309Z"/><path fill="#EA4335" d="M36.33 39.67a3.744 3.744 0 0 0 1.36-1.36l.66-1.135 3.155-5.464c.33-.577.495-1.216.495-1.855H30.66l2.412 4.742 3.258 5.072Z"/><path fill="#00832D" d="m24 18.31 5.67-9.815A3.625 3.625 0 0 0 27.815 8h-7.63a3.84 3.84 0 0 0-1.855.495L24 18.309Z"/><path fill="#2684FC" d="M30.66 29.856H17.34l-5.67 9.814c.557.33 1.196.495 1.856.495h20.948c.66 0 1.299-.186 1.856-.495l-5.67-9.814Z"/><path fill="#FFBA00" d="m36.268 18.928-5.237-9.072a3.744 3.744 0 0 0-1.36-1.361L24 18.309l6.66 11.547h11.32c0-.64-.166-1.279-.495-1.856l-5.217-9.072Z"/></svg>
